!!!COM: Mendelssohn, Felix
!!!CDT: 1809/02/03-1847/11/04
!!!OPR: Vier vierstimmige Lieder
!!!OTL: Frühlingslied
!!!OPS: Op. 100
!!!ONM: Nr. 3
!!!OMD: Andante
**kern	**text	**text	**text	**dynam	**kern	**text	**text	**text	**dynam	**kern	**text	**text	**text	**dynam	**kern	**text	**text	**text	**dynam
*part4	*part4	*part4	*part4	*part4	*part3	*part3	*part3	*part3	*part3	*part2	*part2	*part2	*part2	*part2	*part1	*part1	*part1	*part1	*part1
*staff4	*staff4	*staff4	*staff4	*	*staff3	*staff3	*staff3	*staff3	*	*staff2	*staff2	*staff2	*staff2	*	*staff1	*staff1	*staff1	*staff1	*
*Ivox	*	*	*	*	*Ivox	*	*	*	*	*Ivox	*	*	*	*	*Ivox	*	*	*	*
*I"Bass	*	*	*	*	*I"Tenor	*	*	*	*	*I"Alt	*	*	*	*	*I"Sopran	*	*	*	*
*clefF4	*	*	*	*	*clefGv2	*	*	*	*	*clefG2	*	*	*	*	*clefG2	*	*	*	*
*k[f#c#]	*	*	*	*	*k[f#c#]	*	*	*	*	*k[f#c#]	*	*	*	*	*k[f#c#]	*	*	*	*
*D:	*	*	*	*	*D:	*	*	*	*	*D:	*	*	*	*	*D:	*	*	*	*
*M2/4	*	*	*	*	*M2/4	*	*	*	*	*M2/4	*	*	*	*	*M2/4	*	*	*	*
*MM72	*	*	*	*	*MM72	*	*	*	*	*MM72	*	*	*	*	*MM72	*	*	*	*
=	=	=	=	=	=	=	=	=	=	=	=	=	=	=	=	=	=	=	=
8D	1.Berg	2.In	3.Bis	f	8F#	1.Berg	2.In	3.Bis	f	4r	.	.	.	.	4r	.	.	.	.
8F#	und	das	ich	.	8A	und	das	ich	.	.	.	.	.	.	.	.	.	.	.
=1	=1	=1	=1	=1	=1	=1	=1	=1	=1	=1	=1	=1	=1	=1	=1	=1	=1	=1	=1
8.F#	Thal	Won-	sel-	.	8.d	Thal	Won-	sel-	.	2r	.	.	.	.	2r	.	.	.	.
16D	will	-ne-	-ber	.	16A	will	-ne-	-ber	.	.	.	.	.	.	.	.	.	.	.
8F#	ich	-meer	un-	.	8A	ich	-meer	un-	.	.	.	.	.	.	.	.	.	.	.
8A	druch-	der	-ter-	.	8d	druch-	der	-ter-	.	.	.	.	.	.	.	.	.	.	.
=2	=2	=2	=2	=2	=2	=2	=2	=2	=2	=2	=2	=2	=2	=2	=2	=2	=2	=2	=2
8d	-strei-	Düf-	-ge-	.	8f#	-strei-	Düf-	-ge-	.	2r	.	.	.	.	2r	.	.	.	.
8c#	-fen	-te,	-he	.	8e	-fen	-te,	-he	.	.	.	.	.	.	.	.	.	.	.
8B	in	das	in	.	8d	in	das	in	.	.	.	.	.	.	.	.	.	.	.
8A#X	der	aus	der	.	8c#	der	aus	der	.	.	.	.	.	.	.	.	.	.	.
=3	=3	=3	=3	=3	=3	=3	=3	=3	=3	=3	=3	=3	=3	=3	=3	=3	=3	=3	=3
8B	Früh-	al-	Blü-	.	8d	Früh-	al-	Blü-	.	2r	.	.	.	.	2r	.	.	.	.
8G	-lings-	-len	-then	.	8B	-lings-	-len	-then	.	.	.	.	.	.	.	.	.	.	.
8B	-ta-	Blü-	Bal-	.	8d	-ta-	Blü-	Bal-	.	.	.	.	.	.	.	.	.	.	.
8G	-ge	-then	-sam-	.	8B	-ge	-then	-sam-	.	.	.	.	.	.	.	.	.	.	.
=4	=4	=4	=4	=4	=4	=4	=4	=4	=4	=4	=4	=4	=4	=4	=4	=4	=4	=4	=4
[2D	Pracht,	quillt,	-duft,	.	[2A	Pracht,	quillt,	-duft,	.	4r	.	.	.	.	4r	.	.	.	.
.	.	.	.	.	.	.	.	.	.	8d	1.Berg	2.In	3.Bis	f	8f#	1.Berg	2.In	3.Bis	f
.	.	.	.	.	.	.	.	.	.	8f#	und	das	ich	.	8a	und	das	ich	.
=5	=5	=5	=5	=5	=5	=5	=5	=5	=5	=5	=5	=5	=5	=5	=5	=5	=5	=5	=5
2D_	.	.	.	.	2A]	.	.	.	.	8.f#	Thal	Won-	sel-	.	8.dd	Thal	Won-	sel-	.
.	.	.	.	.	.	.	.	.	.	16d	will	-ne-	-ber	.	16a	will	-ne-	-ber	.
.	.	.	.	.	.	.	.	.	.	8f#	ich	-meer	un-	.	8a	ich	-meer	un-	.
.	.	.	.	.	.	.	.	.	.	8a	druch-	der	-ter-	.	8dd	druch-	der	-ter-	.
=6	=6	=6	=6	=6	=6	=6	=6	=6	=6	=6	=6	=6	=6	=6	=6	=6	=6	=6	=6
2D_	.	.	.	.	4r	.	.	.	.	8dd	-strei-	Düf-	-ge-	.	8ff#	-strei-	Düf-	-ge-	.
.	.	.	.	.	.	.	.	.	.	8cc#	-fen	-te,	-he	.	8ee	-fen	-te,	-he	.
.	.	.	.	.	8F#	in	das	in	.	8b	in	das	in	.	8dd	in	das	in	.
.	.	.	.	.	8F#	der	aus	der	.	8a#X	der	aus	der	.	8cc#	der	aus	der	.
=7	=7	=7	=7	=7	=7	=7	=7	=7	=7	=7	=7	=7	=7	=7	=7	=7	=7	=7	=7
2D]	.	.	.	.	8D	Früh-	al-	Blü-	.	8b	Früh-	al-	Blü-	.	8dd	Früh-	al-	Blü-	.
.	.	.	.	.	8G	-lings-	-len	-then	.	8g	-lings-	-len	-then	.	8b	-lings-	-len	-then	.
.	.	.	.	.	8B	-ta-	Blü-	Bal-	.	8g	-ta-	Blü-	Bal-	.	8dd	-ta-	Blü-	Bal-	.
.	.	.	.	.	8c#	-ge	-then	-sam-	.	8g	-ge	-then	-sam-	.	8b	-ge	-then	-sam-	.
=8	=8	=8	=8	=8	=8	=8	=8	=8	=8	=8	=8	=8	=8	=8	=8	=8	=8	=8	=8
4r	.	.	.	.	4d	Pracht,	quillt,	-duft,	.	4f#	Pracht,	quillt,	-duft,	.	4a	Pracht,	quillt,	-duft,	.
8d	wo	will	und	p	8f#	wo	will	und	p	8f#	wo	will	und	p	8a	wo	will	und	p
8d	auf	ich	aus	.	8f#	auf	ich	aus	.	8f#	auf	ich	aus	.	8a	auf	ich	aus	.
=9	=9	=9	=9	=9	=9	=9	=9	=9	=9	=9	=9	=9	=9	=9	=9	=9	=9	=9	=9
*b:	*	*	*	*	*b:	*	*	*	*	*b:	*	*	*	*	*b:	*	*	*	*
8c#	Wie-	ganz	dir	.	8e	Wie-	ganz	dir	.	8f#	Wie-	ganz	dir	.	8a#X	Wie-	ganz	dir	.
8c#	-sen	mich	ver-	.	8e	-sen	mich	ver-	.	8f#	-sen	mich	ver-	.	8a#	-sen	mich	ver-	.
8c#	und	un-	-jüngt	.	8e	und	un-	-jüngt	.	8f#	und	un-	-jüngt	.	8a#	und	un-	-jüngt	.
8c#	in	-ter-	er-	.	8e	in	-ter-	er-	.	8f#	in	-ter-	er-	.	8a#	in	-ter-	er-	.
=10	=10	=10	=10	=10	=10	=10	=10	=10	=10	=10	=10	=10	=10	=10	=10	=10	=10	=10	=10
(16c#L	Wäl-	-tau-	-ste-	.	(16eL	Wäl-	-tau-	-ste-	.	8f#	Wäl-	-tau-	-ste-	.	(16a#XL	Wäl-	-tau-	-ste-	.
16BJ)	.	.	.	.	16dJ)	.	.	.	.	.	.	.	.	.	16bJ)	.	.	.	.
8B	-dern,	-chen,	-he,	.	8d	-dern,	-chen,	-he,	.	8f#	-dern,	-chen,	-he,	.	8b	-dern,	-chen,	-he,	.
8B	wo	will	und	<	8d	wo	will	und	<	8f#	wo	will	und	<	8b	wo	will	und	<
8B	auf	ich	aus	.	8d	auf	ich	aus	.	8f#	auf	ich	aus	.	8b	auf	ich	aus	.
=11	=11	=11	=11	=11	=11	=11	=11	=11	=11	=11	=11	=11	=11	=11	=11	=11	=11	=11	=11
8A	Wie-	ganz	dir	.	8d	Wie-	ganz	dir	.	8f#	Wie-	ganz	dir	.	8cc#	Wie-	ganz	dir	.
8A	-sen	mich	ver-	.	8d	-sen	mich	ver-	.	8f#	-sen	mich	ver-	.	8cc#	-sen	mich	ver-	.
8A	und	un-	-jüngt	.	8d	und	un-	-jüngt	.	8f#	und	un-	-jüngt	.	8cc#	und	un-	-jüngt	.
8A	in	-ter-	er-	.	8d	in	-ter-	er-	.	8f#	in	-ter-	er-	.	8cc#	in	-ter-	er-	.
=12	=12	=12	=12	=12	=12	=12	=12	=12	=12	=12	=12	=12	=12	=12	=12	=12	=12	=12	=12
(8AL	Wäl-	-tau-	-ste-	f	4d	Wäl-	-tau-	-ste-	f	4f#	Wäl-	-tau-	-ste-	f	(16cc#L	Wäl-	-tau-	-ste-	f
.	.	.	.	.	.	.	.	.	.	.	.	.	.	.	16ddJ)	.	.	.	.
8G#XJ)	.	.	.	.	.	.	.	.	.	.	.	.	.	.	8dd	-dern	-chen	-he	.
4G#	-dern	-chen	-he	.	4d	-dern,	-chen,	-he,	.	4f#	-dern,	-chen,	-he,	.	8b	die	bis	du	.
.	.	.	.	.	.	.	.	.	.	.	.	.	.	.	8b	ver-	der	ge-	.
=13	=13	=13	=13	=13	=13	=13	=13	=13	=13	=13	=13	=13	=13	=13	=13	=13	=13	=13	=13
4r	.	.	.	.	4r	.	.	.	.	4r	.	.	.	.	8ee	-jüng-	See-	-lieb-	.
.	.	.	.	.	.	.	.	.	.	.	.	.	.	.	8dd	-te	-le	-te	.
*D:	*	*	*	*	*D:	*	*	*	*	*D:	*	*	*	*	*D:	*	*	*	*
8G#X	die	bis	du	.	8d	die	bis	du	.	8e	die	bis	du	.	8cc#	Schö-	Durst	Früh-	.
8G#	ver-	der	ge-	.	8d	ver-	der	ge-	.	8e	ver-	der	ge-	.	8b	-pfung	ge-	-lings-	.
=14	=14	=14	=14	=14	=14	=14	=14	=14	=14	=14	=14	=14	=14	=14	=14	=14	=14	=14	=14
[2A	-jüng-	See-	-lieb-	.	(8dL	-jüng-	See-	-lieb-	.	(8f#L	-jüng-	See-	-lieb-	.	[2a	lacht,	-stillt,	-luft,	.
.	.	.	.	.	8c#	.	.	.	.	8e	.	.	.	.	.	.	.	.	.
.	.	.	.	.	8dJ)	.	.	.	.	8f#J)	.	.	.	.	.	.	.	.	.
.	.	.	.	.	8d#X	-te	-le	-te	.	8a	-te	-le	-te	.	.	.	.	.	.
=15	=15	=15	=15	=15	=15	=15	=15	=15	=15	=15	=15	=15	=15	=15	=15	=15	=15	=15	=15
8A]	.	.	.	.	4.e	Schö-	Durst	Früh-	.	4.g	Schö-	Durst	Früh-	.	4a]	.	.	.	.
8G#X	-te	-le	-te	.	.	.	.	.	.	.	.	.	.	.	.	.	.	.	.
8A	Schö-	Durst	Früh-	.	.	.	.	.	.	.	.	.	.	.	4r	.	.	.	.
8A#X	-pfung	ge-	-lings-	.	8c#	-pfung	ge-	-lings-	.	8g	-pfung	ge-	-lings-	.	.	.	.	.	.
=16	=16	=16	=16	=16	=16	=16	=16	=16	=16	=16	=16	=16	=16	=16	=16	=16	=16	=16	=16
4B	lacht,	-stillt,	-luft,	.	4d	lacht,	-stillt,	-luft,	.	4f#	lacht,	-stillt,	-luft,	.	4r	.	.	.	.
4r	.	.	.	.	4r	.	.	.	.	4r	.	.	.	.	8b	die	bis	du	.
.	.	.	.	.	.	.	.	.	.	.	.	.	.	.	8b	ver-	der	ge-	.
=17	=17	=17	=17	=17	=17	=17	=17	=17	=17	=17	=17	=17	=17	=17	=17	=17	=17	=17	=17
4.G#X	die	bis	du	.	4.d	die	bis	du	.	4.e	die	bis	du	.	8ee	-jüng-	See-	-lieb-	.
.	.	.	.	.	.	.	.	.	.	.	.	.	.	.	8dd	-te	-le	-te	.
.	.	.	.	.	.	.	.	.	.	.	.	.	.	.	8cc#	Schö-	Durst	Früh-	.
8G#	ver-	der	ge-	.	8d	ver-	der	ge-	.	8e	ver-	der	ge-	.	8b	-pfung	ge-	-lings-	.
=18	=18	=18	=18	=18	=18	=18	=18	=18	=18	=18	=18	=18	=18	=18	=18	=18	=18	=18	=18
[2A	-jüng-	See-	-lieb-	.	(8dL	-jüng-	See-	-lieb-	.	(8f#L	-jüng-	See-	-lieb-	.	[2a	lacht,	-stillt,	-luft,	.
.	.	.	.	.	8c#	.	.	.	.	8a	.	.	.	.	.	.	.	.	.
.	.	.	.	.	8BJ)	.	.	.	.	8gJ)	.	.	.	.	.	.	.	.	.
.	.	.	.	.	8A	-te	-le	-te	.	8f#	-te	-le	-te	.	.	.	.	.	.
=19	=19	=19	=19	=19	=19	=19	=19	=19	=19	=19	=19	=19	=19	=19	=19	=19	=19	=19	=19
8A]	.	.	.	.	(8GL	Schö-	Durst	Früh-	.	(8eL	Schö-	Durst	Früh-	.	2a]	.	.	.	.
8AA	-te,	-le,	-te,	.	8BJ)	.	.	.	.	8gJ)	.	.	.	.	.	.	.	.	.
8BB	die	bis	du	.	(8AL	-pfung	ge-	-lings-	.	(8f#L	-pfung	ge-	-lings-	.	.	.	.	.	.
8C#	ver-	der	ge-	.	8GJ)	.	.	.	.	8eJ)	.	.	.	.	.	.	.	.	.
=20	=20	=20	=20	=20	=20	=20	=20	=20	=20	=20	=20	=20	=20	=20	=20	=20	=20	=20	=20
(8DL	-jüng-	See-	-lieb-	.	4F#	lacht,	-stillt,	-luft,	.	4d	lacht,	-stillt,	-luft,	.	4r	.	.	.	.
8A	.	.	.	.	.	.	.	.	.	.	.	.	.	.	.	.	.	.	.
8F#J)	.	.	.	.	8A	die	bis	du	f	8d	die	bis	du	f	8f#	die	bis	du	f
8D	-te	-le	-te	.	8d	ver-	der	ge-	.	8f#	ver-	der	ge-	.	8a	ver-	der	ge-	.
=21	=21	=21	=21	=21	=21	=21	=21	=21	=21	=21	=21	=21	=21	=21	=21	=21	=21	=21	=21
4A	Schö-	Durst	Früh-	.	8f#	-jüng-	See-	-lieb-	.	8a	-jüng-	See-	-lieb-	.	8dd	-jüng-	See-	-lieb-	.
.	.	.	.	.	8d	-te	-le	-te	.	8f#	-te	-le	-te	.	8a	-te	-le	-te	.
4AA	-pfung	ge-	-lings-	.	8.c#	Schö-	Durst	Früh-	.	8.a	Schö-	Durst	Früh-	.	8.ff#	Schö-	Durst	Früh-	.
.	.	.	.	.	16c#	-pfung	ge-	-lings-	.	16g	-pfung	ge-	-lings-	.	16ee	-pfung	ge-	-lings-	.
=22	=22	=22	=22	=22	=22	=22	=22	=22	=22	=22	=22	=22	=22	=22	=22	=22	=22	=22	=22
[2D	lacht.	-stillt.	-luft.	.	[2d	lacht.	-stillt.	-luft.	.	(8f#L	lacht,	-stillt,	-luft,	.	(8ddL	lacht,	-stillt,	-luft,	.
.	.	.	.	.	.	.	.	.	.	8aJ)	.	.	.	.	8cc#J)	.	.	.	.
.	.	.	.	>	.	.	.	.	>	8g	die	bis	du	>	8b	die	bis	du	>
.	.	.	.	.	.	.	.	.	.	8f#	ver-	der	ge-	.	8a#X	ver-	der	ge-	.
=23	=23	=23	=23	=23	=23	=23	=23	=23	=23	=23	=23	=23	=23	=23	=23	=23	=23	=23	=23
2D_	.	.	.	.	4d]	.	.	.	.	8g	-jüng-	See-	-lieb-	.	8b	-jüng-	See-	-lieb-	.
.	.	.	.	.	.	.	.	.	.	8e	-te	-le	-te	.	8g	-te	-le	-te	.
.	.	.	.	.	4c#	.	.	.	.	8g	Schö-	Durst	Früh-	.	8b	Schö-	Durst	Früh-	.
.	.	.	.	.	.	.	.	.	.	8e	-pfung	ge-	-lings-	.	8g	-pfung	ge-	-lings-	.
=24	=24	=24	=24	=24	=24	=24	=24	=24	=24	=24	=24	=24	=24	=24	=24	=24	=24	=24	=24
4D;]	.	.	.	.	4d;	.	.	.	.	4d;	lacht.	-stillt.	-luft.	.	4f#;	lacht.	-stillt.	-luft.	.
==	==	==	==	==	==	==	==	==	==	==	==	==	==	==	==	==	==	==	==
*-	*-	*-	*-	*-	*-	*-	*-	*-	*-	*-	*-	*-	*-	*-	*-	*-	*-	*-	*-
!!!system-decoration: ([s1,s2,s3,s4])
!!!RDF**kern: i = editorial accidental
!!!AGN: Choral
!!!YOR: https://mdz-nbn-resolving.de/details:bsb00026636
!!!YOO: München, Bayerische Staatsbibliothek
!!!URL-scan: https://www.digitale-sammlungen.de/de/view/bsb00026636?page=4
!!!EED: Wolfgang Drescher
!!!END: 2024/11/14
!!!ENC: Wolfgang Drescher
!!!EEV: 2024/11/14
!!!title: @{OPS} @{ONM}. @{OTL}